;FLAVOR:Marlin
;TIME:926
;Filament used: 0.933461m
;Layer height: 0.2
;MINX:101.25
;MINY:77.914
;MINZ:0.2
;MAXX:153.739
;MAXY:132.099
;MAXZ:5.4
;Generated with Cura_SteamEngine 4.10.0
M140 S60
M105
M190 S60
M104 S200
M105
M109 S200
M82 ;absolute extrusion mode
M220 S100 ;Reset Feedrate
M221 S100 ;Reset Flowrate

G28 ;Home

;Code for nozzle cleaning and flow normalization
G92 E0 ;Reset Extruder
G1 Z2.0 F3000 ;Move Z Axis up
G1 X10.4 Y20 Z0.28 F5000.0
G1 X10.4 Y170.0 Z0.28 F1500.0 E15
G1 X10.1 Y170.0 Z0.28 F5000.0
G1 X10.1 Y40 Z0.28 F1500.0 E30

G92 E0 ;Reset Extruder
G1 Z2.0 F3000 ;Move Z Axis up
G92 E0
G92 E0
G1 F1500 E-6.5
;LAYER_COUNT:27
;LAYER:0
M107
G0 F9000 X107.314 Y83.614 Z0.2
;TYPE:SKIRT
G1 F1500 E0
G1 F1800 X107.891 Y82.905 E0.038
G1 X107.99 Y82.793 E0.04422
G1 X108.399 Y82.355 E0.06913
G1 X108.64 Y82.11 E0.08342
G1 X109.333 Y81.462 E0.12287
G1 X110.065 Y80.885 E0.16162
G1 X110.188 Y80.796 E0.16793
G1 X110.619 Y80.499 E0.18969
G1 X110.903 Y80.313 E0.20381
G1 X111.718 Y79.827 E0.24326
G1 X112.586 Y79.405 E0.28338
G1 X112.738 Y79.339 E0.29027
G1 X113.292 Y79.116 E0.3151
G1 X113.598 Y79.002 E0.32868
G1 X114.499 Y78.708 E0.36808
G1 X115.261 Y78.524 E0.40067
G1 X115.407 Y78.494 E0.40687
G1 X116.075 Y78.378 E0.43506
G1 X116.41 Y78.33 E0.44913
G1 X116.994 Y78.262 E0.47357
G1 X117.45 Y78.225 E0.49259
G1 X118.018 Y78.19 E0.51625
G1 X123.091 Y77.936 E0.72742
G1 X123.702 Y77.914 E0.75284
G1 X124.566 Y77.916 E0.78876
G1 X127.096 Y78.019 E0.89404
G1 X129.639 Y78.051 E0.99977
G1 X131.24 Y78.036 E1.06634
G1 X136.699 Y78.061 E1.2933
G1 X137.383 Y78.074 E1.32174
G1 X138.408 Y78.14 E1.36444
G1 X138.751 Y78.178 E1.37879
G1 X139.688 Y78.322 E1.4182
G1 X140.61 Y78.545 E1.45764
G1 X141.284 Y78.761 E1.48707
G1 X141.624 Y78.882 E1.50207
G1 X142.503 Y79.238 E1.5415
G1 X143.504 Y79.754 E1.58832
G1 X143.578 Y79.797 E1.59188
G1 X144.043 Y80.082 E1.61455
G1 X144.256 Y80.22 E1.6251
G1 X145.03 Y80.769 E1.66456
G1 X145.717 Y81.347 E1.70188
G1 X145.796 Y81.419 E1.70633
G1 X146.314 Y81.922 E1.73634
G1 X146.479 Y82.093 E1.74622
G1 X147.108 Y82.803 E1.78566
G1 X147.914 Y83.928 E1.8432
G1 X148.099 Y84.223 E1.85767
G1 X148.568 Y85.047 E1.89709
G1 X148.987 Y85.955 E1.93867
G1 X149.02 Y86.036 E1.9423
G1 X149.282 Y86.75 E1.97392
G1 X149.363 Y86.995 E1.98465
G1 X149.623 Y87.907 E2.02408
G1 X149.817 Y88.923 E2.06708
G1 X149.836 Y89.055 E2.07263
G1 X149.895 Y89.534 E2.09269
G1 X149.919 Y89.773 E2.10268
G1 X149.948 Y90.119 E2.11711
G1 X150.041 Y91.471 E2.17346
G1 X150.061 Y91.816 E2.18782
G1 X150.27 Y94.299 E2.29142
G1 X150.556 Y96.82 E2.3969
G1 X150.909 Y99.305 E2.50126
G1 X151.329 Y101.766 E2.60505
G1 X151.82 Y104.218 E2.70902
G1 X152.38 Y106.661 E2.81322
G1 X152.997 Y109.04 E2.9154
G1 X153.25 Y109.964 E2.95523
G1 X153.461 Y110.889 E2.99467
G1 X153.557 Y111.499 E3.02035
G1 X153.623 Y112.012 E3.04185
G1 X153.667 Y112.411 E3.05854
G1 X153.692 Y112.681 E3.06981
G1 X153.739 Y113.876 E3.11953
G1 X153.738 Y113.947 E3.12249
G1 X153.681 Y114.933 E3.16355
G1 X153.644 Y115.295 E3.17868
G1 X153.559 Y115.941 E3.20576
G1 X153.495 Y116.338 E3.22248
G1 X153.304 Y117.268 E3.26196
G1 X153.09 Y118.016 E3.2943
G1 X153.032 Y118.195 E3.30212
G1 X152.894 Y118.594 E3.31968
G1 X152.704 Y119.113 E3.34265
G1 X152.341 Y119.99 E3.38212
G1 X151.937 Y120.776 E3.41886
G1 X151.677 Y121.219 E3.44021
G1 X151.418 Y121.634 E3.46055
G1 X151.191 Y121.985 E3.47793
G1 X150.642 Y122.759 E3.51738
G1 X149.85 Y123.677 E3.56779
G1 X149.416 Y124.128 E3.59381
G1 X149.029 Y124.511 E3.61645
G1 X148.906 Y124.627 E3.62348
G1 X148.189 Y125.249 E3.66294
G1 X147.554 Y125.718 E3.69576
G1 X146.479 Y126.456 E3.74997
G1 X146.209 Y126.636 E3.76346
G1 X143.931 Y128.251 E3.87956
G1 X142.953 Y128.967 E3.92995
G1 X142.662 Y129.173 E3.94477
G1 X142.383 Y129.364 E3.95883
G1 X141.579 Y129.866 E3.99824
G1 X140.967 Y130.189 E4.02701
G1 X140.353 Y130.489 E4.05542
G1 X140.029 Y130.641 E4.0703
G1 X139.76 Y130.762 E4.08256
G1 X138.879 Y131.114 E4.122
G1 X138.207 Y131.327 E4.15131
G1 X137.553 Y131.512 E4.17957
G1 X137.247 Y131.594 E4.19274
G1 X136.97 Y131.664 E4.20462
G1 X136.042 Y131.858 E4.24404
G1 X135.314 Y131.953 E4.27456
G1 X134.612 Y132.022 E4.30388
G1 X134.263 Y132.051 E4.31844
G1 X134.009 Y132.068 E4.32903
G1 X133.335 Y132.093 E4.35707
G1 X132.288 Y132.099 E4.4006
G1 X121.891 Y132.01 E4.83287
G1 X121.066 Y131.992 E4.86718
G1 X120.418 Y131.959 E4.89416
G1 X119.87 Y131.915 E4.91701
G1 X119.552 Y131.885 E4.93029
G1 X119.148 Y131.841 E4.94719
G1 X118.21 Y131.699 E4.98663
G1 X117.539 Y131.546 E5.01524
G1 X116.992 Y131.404 E5.03874
G1 X116.713 Y131.328 E5.05076
G1 X116.344 Y131.222 E5.06672
G1 X115.444 Y130.922 E5.10616
G1 X114.777 Y130.643 E5.13622
G1 X114.247 Y130.401 E5.16044
G1 X113.971 Y130.27 E5.17315
G1 X113.626 Y130.101 E5.18912
G1 X113.32 Y129.945 E5.2034
G1 X112.115 Y129.308 E5.26007
G1 X111.948 Y129.217 E5.26797
G1 X110.38 Y128.425 E5.34101
G1 X109.365 Y127.896 E5.38859
G1 X108.984 Y127.688 E5.40664
G1 X108.279 Y127.285 E5.4404
G1 X107.476 Y126.78 E5.47984
G1 X106.725 Y126.214 E5.51894
G1 X106.474 Y126.008 E5.53244
G1 X105.668 Y125.279 E5.57762
G1 X105.339 Y124.951 E5.59693
G1 X104.696 Y124.254 E5.63636
G1 X103.872 Y123.15 E5.69363
G1 X103.547 Y122.654 E5.71829
G1 X103.293 Y122.248 E5.7382
G1 X103.172 Y122.045 E5.74802
G1 X102.722 Y121.211 E5.78742
G1 X102.269 Y120.146 E5.83554
G1 X102.14 Y119.793 E5.85116
G1 X102.025 Y119.462 E5.86573
G1 X101.91 Y119.114 E5.88097
G1 X101.651 Y118.202 E5.92039
G1 X101.461 Y117.218 E5.96205
G1 X101.424 Y116.966 E5.97264
G1 X101.363 Y116.473 E5.99329
G1 X101.321 Y116.061 E6.01051
G1 X101.264 Y115.098 E6.05062
G1 X101.251 Y114.275 E6.08484
G1 X101.25 Y100.078 E6.67508
G1 X101.26 Y99.312 E6.70693
G1 X101.309 Y98.423 E6.74395
G1 X101.382 Y97.651 E6.77619
G1 X101.511 Y96.711 E6.81563
G1 X101.719 Y95.786 E6.85505
G1 X101.921 Y95.119 E6.88402
G1 X102.175 Y94.365 E6.9171
G1 X102.666 Y93.147 E6.9717
G1 X103.159 Y92.106 E7.01959
G1 X103.528 Y91.353 E7.05445
G1 X104.555 Y89.1 E7.15739
G1 X105.121 Y87.742 E7.21856
G1 X105.3 Y87.358 E7.23617
G1 X105.691 Y86.426 E7.27819
G1 X106.263 Y85.257 E7.3323
G1 X106.339 Y85.122 E7.33874
G1 X106.6 Y84.682 E7.36001
G1 X106.778 Y84.397 E7.37398
G1 X107.314 Y83.614 E7.41343
G0 F9000 X107.727 Y83.897
G1 F1800 X108.266 Y83.236 E7.44889
G1 X108.365 Y83.124 E7.45511
G1 X108.755 Y82.705 E7.47891
G1 X108.996 Y82.46 E7.49319
G1 X109.674 Y81.828 E7.53173
G1 X110.358 Y81.29 E7.56791
G1 X110.481 Y81.201 E7.57422
G1 X110.893 Y80.917 E7.59502
G1 X111.177 Y80.731 E7.60914
G1 X111.974 Y80.257 E7.64769
G1 X112.785 Y79.863 E7.68518
G1 X112.937 Y79.797 E7.69207
G1 X113.466 Y79.584 E7.71578
G1 X113.772 Y79.47 E7.72935
G1 X114.654 Y79.184 E7.7679
G1 X115.361 Y79.014 E7.79813
G1 X115.507 Y78.984 E7.80433
G1 X116.146 Y78.873 E7.83129
G1 X116.481 Y78.825 E7.84536
G1 X117.039 Y78.76 E7.86872
G1 X117.481 Y78.724 E7.88716
G1 X118.043 Y78.69 E7.91056
G1 X123.109 Y78.436 E8.12145
G1 X123.72 Y78.414 E8.14687
G1 X124.545 Y78.416 E8.18117
G1 X127.068 Y78.519 E8.28615
G1 X129.592 Y78.55 E8.39109
G1 X131.238 Y78.536 E8.45953
G1 X136.689 Y78.561 E8.68616
G1 X137.373 Y78.574 E8.7146
G1 X138.353 Y78.637 E8.75543
G1 X138.696 Y78.675 E8.76977
G1 X139.612 Y78.817 E8.80831
G1 X140.513 Y79.037 E8.84687
G1 X141.116 Y79.232 E8.87322
G1 X141.456 Y79.353 E8.88822
G1 X142.316 Y79.701 E8.92679
G1 X143.253 Y80.186 E8.97066
G1 X143.327 Y80.229 E8.97422
G1 X143.771 Y80.502 E8.99589
G1 X143.984 Y80.64 E9.00644
G1 X144.74 Y81.177 E9.04499
G1 X145.38 Y81.717 E9.07981
G1 X145.459 Y81.789 E9.08425
G1 X145.954 Y82.27 E9.11295
G1 X146.119 Y82.441 E9.12283
G1 X146.733 Y83.135 E9.16135
G1 X147.49 Y84.194 E9.21547
G1 X147.675 Y84.489 E9.22995
G1 X148.134 Y85.295 E9.26851
G1 X148.523 Y86.144 E9.30734
G1 X148.556 Y86.225 E9.31097
G1 X148.808 Y86.907 E9.3412
G1 X148.889 Y87.152 E9.35193
G1 X149.141 Y88.044 E9.39046
G1 X149.322 Y88.994 E9.43067
G1 X149.341 Y89.126 E9.43622
G1 X149.397 Y89.584 E9.4554
G1 X149.421 Y89.823 E9.46539
G1 X149.449 Y90.154 E9.4792
G1 X149.542 Y91.499 E9.53525
G1 X149.562 Y91.85 E9.54986
G1 X149.774 Y94.362 E9.65467
G1 X150.059 Y96.881 E9.76007
G1 X150.41 Y99.348 E9.86367
G1 X150.842 Y101.877 E9.97033
G1 X151.331 Y104.324 E10.07408
G1 X151.898 Y106.794 E10.17944
G1 X152.532 Y109.237 E10.28437
G1 X152.767 Y110.096 E10.3214
G1 X152.973 Y111 E10.35995
G1 X153.061 Y111.563 E10.38364
G1 X153.127 Y112.076 E10.40514
G1 X153.169 Y112.457 E10.42108
G1 X153.194 Y112.727 E10.43235
G1 X153.239 Y113.869 E10.47987
G1 X153.238 Y113.94 E10.48282
G1 X153.183 Y114.882 E10.52205
G1 X153.146 Y115.244 E10.53718
G1 X153.065 Y115.862 E10.56309
G1 X153.001 Y116.259 E10.57981
G1 X152.814 Y117.167 E10.61835
G1 X152.615 Y117.862 E10.64841
G1 X152.557 Y118.041 E10.65623
G1 X152.425 Y118.423 E10.67303
G1 X152.235 Y118.942 E10.69601
G1 X151.879 Y119.798 E10.73456
G1 X151.501 Y120.531 E10.76884
G1 X151.252 Y120.956 E10.78932
G1 X150.998 Y121.363 E10.80927
G1 X150.771 Y121.714 E10.82665
G1 X150.234 Y122.47 E10.8652
G1 X149.49 Y123.33 E10.91248
G1 X149.056 Y123.781 E10.9385
G1 X148.686 Y124.148 E10.96017
G1 X148.563 Y124.264 E10.9672
G1 X147.861 Y124.87 E11.00575
G1 X147.271 Y125.306 E11.03625
G1 X146.196 Y126.044 E11.09046
G1 X145.921 Y126.228 E11.10422
G1 X143.681 Y127.815 E11.21835
G1 X142.658 Y128.564 E11.27107
G1 X142.38 Y128.76 E11.28521
G1 X142.101 Y128.951 E11.29926
G1 X141.314 Y129.442 E11.33783
G1 X140.747 Y129.74 E11.36446
G1 X140.133 Y130.04 E11.39287
G1 X139.824 Y130.185 E11.40706
G1 X139.555 Y130.306 E11.41933
G1 X138.694 Y130.649 E11.45786
G1 X138.071 Y130.846 E11.48502
G1 X137.417 Y131.031 E11.51328
G1 X137.125 Y131.109 E11.52585
G1 X136.848 Y131.179 E11.53772
G1 X135.94 Y131.368 E11.57628
G1 X135.266 Y131.455 E11.60454
G1 X134.564 Y131.524 E11.63386
G1 X134.23 Y131.552 E11.6478
G1 X133.976 Y131.569 E11.65838
G1 X133.332 Y131.593 E11.68518
G1 X132.292 Y131.599 E11.72841
G1 X121.895 Y131.51 E12.16069
G1 X121.077 Y131.492 E12.1947
G1 X120.458 Y131.461 E12.22047
G1 X119.91 Y131.417 E12.24333
G1 X119.606 Y131.388 E12.25602
G1 X119.202 Y131.344 E12.27292
G1 X118.286 Y131.204 E12.31144
G1 X117.665 Y131.062 E12.33793
G1 X117.118 Y130.92 E12.36142
G1 X116.851 Y130.847 E12.37293
G1 X116.482 Y130.741 E12.38889
G1 X115.603 Y130.447 E12.42743
G1 X114.985 Y130.188 E12.45529
G1 X114.455 Y129.946 E12.47951
G1 X114.191 Y129.821 E12.49165
G1 X113.846 Y129.652 E12.50763
G1 X113.554 Y129.503 E12.52126
G1 X112.355 Y128.869 E12.57764
G1 X112.166 Y128.766 E12.58659
G1 X110.48 Y127.914 E12.66513
G1 X109.596 Y127.453 E12.70658
G1 X109.232 Y127.254 E12.72383
G1 X108.527 Y126.851 E12.75759
G1 X107.743 Y126.356 E12.79614
G1 X107.042 Y125.828 E12.83262
G1 X106.791 Y125.622 E12.84612
G1 X106.021 Y124.925 E12.8893
G1 X105.692 Y124.597 E12.90862
G1 X105.064 Y123.915 E12.94716
G1 X104.29 Y122.876 E13.00103
G1 X103.965 Y122.38 E13.02568
G1 X103.723 Y121.992 E13.04469
G1 X103.602 Y121.789 E13.05452
G1 X103.162 Y120.973 E13.09306
G1 X102.739 Y119.975 E13.13813
G1 X102.61 Y119.622 E13.15375
G1 X102.5 Y119.305 E13.1677
G1 X102.385 Y118.957 E13.18294
G1 X102.132 Y118.065 E13.22149
G1 X101.956 Y117.146 E13.26039
G1 X101.919 Y116.894 E13.27098
G1 X101.86 Y116.422 E13.29075
G1 X101.818 Y116.01 E13.30797
G1 X101.764 Y115.09 E13.34629
G1 X101.75 Y114.097 E13.38758
G1 X101.751 Y99.916 E13.97715
G1 X101.76 Y99.32 E14.00193
G1 X101.807 Y98.47 E14.03733
G1 X101.88 Y97.698 E14.06957
G1 X102.007 Y96.78 E14.1081
G1 X102.212 Y95.876 E14.14663
G1 X102.395 Y95.278 E14.17263
G1 X102.649 Y94.524 E14.20571
G1 X103.118 Y93.361 E14.25785
G1 X103.608 Y92.326 E14.30546
G1 X103.978 Y91.571 E14.34041
G1 X105.007 Y89.314 E14.44354
G1 X105.582 Y87.934 E14.5057
G1 X105.76 Y87.554 E14.52314
G1 X106.152 Y86.62 E14.56525
G1 X106.698 Y85.502 E14.61698
G1 X106.774 Y85.367 E14.62342
G1 X107.024 Y84.946 E14.64378
G1 X107.202 Y84.661 E14.65775
G1 X107.727 Y83.897 E14.69629
G0 F9000 X108.139 Y84.18
G1 F1800 X108.64 Y83.568 E14.72917
G1 X108.739 Y83.456 E14.73539
G1 X109.112 Y83.056 E14.75813
G1 X109.353 Y82.811 E14.77241
G1 X110.015 Y82.194 E14.81004
G1 X110.651 Y81.695 E14.84365
G1 X110.774 Y81.606 E14.84996
G1 X111.167 Y81.335 E14.86981
G1 X111.451 Y81.149 E14.88392
G1 X112.23 Y80.687 E14.92157
G1 X112.985 Y80.322 E14.95644
G1 X113.137 Y80.256 E14.96333
G1 X113.641 Y80.053 E14.98592
G1 X113.947 Y79.939 E14.99949
G1 X114.808 Y79.661 E15.03711
G1 X115.462 Y79.504 E15.06507
G1 X115.608 Y79.474 E15.07127
G1 X116.217 Y79.368 E15.09697
G1 X116.552 Y79.32 E15.11104
G1 X117.084 Y79.258 E15.13331
G1 X117.512 Y79.223 E15.15116
G1 X118.068 Y79.189 E15.17432
G1 X123.127 Y78.936 E15.38491
G1 X123.738 Y78.914 E15.41033
G1 X124.525 Y78.916 E15.44305
G1 X127.042 Y79.019 E15.54778
G1 X129.591 Y79.05 E15.65377
G1 X131.236 Y79.036 E15.72216
G1 X136.68 Y79.061 E15.9485
G1 X137.364 Y79.074 E15.97694
G1 X138.298 Y79.134 E16.01585
G1 X138.641 Y79.172 E16.0302
G1 X139.535 Y79.312 E16.06782
G1 X140.414 Y79.529 E16.10546
G1 X140.949 Y79.703 E16.12885
G1 X141.289 Y79.824 E16.14385
G1 X142.127 Y80.165 E16.18147
G1 X143.002 Y80.619 E16.22245
G1 X143.076 Y80.662 E16.22601
G1 X143.499 Y80.922 E16.24665
G1 X143.712 Y81.06 E16.2572
G1 X144.45 Y81.585 E16.29486
G1 X145.043 Y82.086 E16.32713
G1 X145.122 Y82.158 E16.33158
G1 X145.594 Y82.617 E16.35895
G1 X145.759 Y82.788 E16.36883
G1 X146.358 Y83.466 E16.40644
G1 X147.067 Y84.459 E16.45717
G1 X147.252 Y84.754 E16.47165
G1 X147.698 Y85.542 E16.50929
G1 X148.06 Y86.333 E16.54546
G1 X148.093 Y86.414 E16.54909
G1 X148.333 Y87.064 E16.5779
G1 X148.414 Y87.309 E16.58863
G1 X148.66 Y88.18 E16.62626
G1 X148.827 Y89.066 E16.66374
G1 X148.846 Y89.198 E16.66929
G1 X148.9 Y89.634 E16.68755
G1 X148.924 Y89.873 E16.69754
G1 X148.95 Y90.188 E16.71068
G1 X149.043 Y91.528 E16.76652
G1 X149.063 Y91.883 E16.78131
G1 X149.278 Y94.424 E16.88733
G1 X149.562 Y96.936 E16.99243
G1 X149.917 Y99.432 E17.09724
G1 X150.348 Y101.955 E17.20366
G1 X150.849 Y104.463 E17.30999
G1 X151.405 Y106.885 E17.4133
G1 X152.038 Y109.325 E17.5181
G1 X152.285 Y110.228 E17.55703
G1 X152.485 Y111.111 E17.59467
G1 X152.565 Y111.627 E17.61638
G1 X152.631 Y112.14 E17.63788
G1 X152.671 Y112.503 E17.65306
G1 X152.696 Y112.773 E17.66434
G1 X152.739 Y113.862 E17.70965
G1 X152.738 Y113.933 E17.7126
G1 X152.686 Y114.831 E17.75
G1 X152.649 Y115.193 E17.76512
G1 X152.571 Y115.782 E17.78983
G1 X152.507 Y116.179 E17.80654
G1 X152.324 Y117.066 E17.8442
G1 X152.139 Y117.708 E17.87198
G1 X152.081 Y117.887 E17.8798
G1 X151.955 Y118.251 E17.89581
G1 X151.765 Y118.77 E17.91879
G1 X151.417 Y119.605 E17.9564
G1 X151.066 Y120.285 E17.98822
G1 X150.826 Y120.693 E18.0079
G1 X150.578 Y121.091 E18.02739
G1 X150.351 Y121.442 E18.04477
G1 X149.826 Y122.18 E18.08242
G1 X149.13 Y122.983 E18.1266
G1 X148.696 Y123.434 E18.15263
G1 X148.343 Y123.784 E18.17329
G1 X148.22 Y123.9 E18.18032
G1 X147.534 Y124.491 E18.21797
G1 X146.988 Y124.893 E18.24616
G1 X145.783 Y125.719 E18.30689
G1 X145.64 Y125.814 E18.31403
G1 X143.33 Y127.451 E18.43174
G1 X142.362 Y128.16 E18.48163
G1 X142.097 Y128.348 E18.49513
G1 X141.818 Y128.539 E18.50919
G1 X141.049 Y129.017 E18.54684
G1 X140.528 Y129.29 E18.57129
G1 X139.914 Y129.59 E18.5997
G1 X139.619 Y129.729 E18.61326
G1 X139.35 Y129.85 E18.62552
G1 X138.509 Y130.184 E18.66314
G1 X137.935 Y130.365 E18.68817
G1 X137.281 Y130.55 E18.71642
G1 X137.002 Y130.625 E18.72843
G1 X136.725 Y130.695 E18.74031
G1 X135.839 Y130.877 E18.77792
G1 X135.217 Y130.958 E18.804
G1 X134.515 Y131.027 E18.83332
G1 X134.196 Y131.053 E18.84663
G1 X133.942 Y131.07 E18.85721
G1 X133.328 Y131.093 E18.88276
G1 X132.296 Y131.099 E18.92566
G1 X121.899 Y131.01 E19.35794
